src/svg/graphic-A.svg

<svg fill="none" height="717" viewBox="0 0 640 717" width="640" xmlns="http://www.w3.org/2000/svg"><path d="m270.166 0h154.668l270.166 717h-149.646l-59.256-171.239h-277.196l-59.256 171.239h-149.646zm171.742 421.588-64.278-179.25-26.113-87.122h-8.034l-26.113 87.122-64.278 179.25z" fill="#1300ed" fill-opacity=".6"/></svg>

<svg width="640" height="717" viewBox="0 0 640 717" fill="none" xmlns="http://www.w3.org/2000/svg">
<path d="M270.166 0H424.834L695 717H545.354L486.098 545.761H208.902L149.646 717H0L270.166 0ZM441.908 421.588L377.63 242.338L351.517 155.216H343.483L317.37 242.338L253.092 421.588H441.908Z" fill="#1300ED" fill-opacity="0.6"/>
</svg>
